X: 57
T:Jackie Coleman's reel
R:Reel
S:Matt Cranitch Fiddle book
Z:added by Alf 
M:4/4
L:1/8
Q:1/2=112
K:D
|:dB|AF~F2 EDB,D|F2AF BFAF|E2BE dEBE|ABde fedB|
AF~F2 EFDE|F2AF BFAF|E2BE dEBE|ABde fd:|
|:de|fd~d2 dfag|fd~d2 dfaf|eA~A2 eAfA|eA~A2 cdeg|
fd~d2 dfag|fd~d2 dfaf|g2ef gbag| (3fga eg fd:|
